Icons/SVG/brands/figma.svg

<svg width="24" height="24" viewBox="0 0 24 24" fill="none" xmlns="http://www.w3.org/2000/svg">
<path d="M18 3.5V2.5H17V1.5H7V2.5H6V3.5H5V6.5H6V7.5H7V9.5H6V10.5H5V13.5H6V14.5H7V16.5H6V17.5H5V20.5H6V21.5H7V22.5H12V21.5H13V15.5H17V14.5H18V13.5H19V10.5H18V9.5H17V7.5H18V6.5H19V3.5H18ZM11 21.5H8V20.5H7V17.5H8V16.5H11V21.5ZM11 14.5H8V13.5H7V10.5H8V9.5H11V14.5ZM11 7.5H8V6.5H7V3.5H8V2.5H11V7.5ZM17 10.5V13.5H16V14.5H14V13.5H13V10.5H14V9.5H16V10.5H17ZM16 6.5V7.5H13V2.5H16V3.5H17V6.5H16Z" fill="black"/>
</svg>

<?xml version="1.0" encoding="UTF-8"?><svg id="Figma" xmlns="http://www.w3.org/2000/svg" viewBox="0 0 24 24"><path d="m18,3.5v-1h-1v-1H7v1h-1v1h-1v3h1v1h1v2h-1v1h-1v3h1v1h1v2h-1v1h-1v3h1v1h1v1h5v-1h1v-6h4v-1h1v-1h1v-3h-1v-1h-1v-2h1v-1h1v-3h-1Zm-7,18h-3v-1h-1v-3h1v-1h3v5Zm0-7h-3v-1h-1v-3h1v-1h3v5Zm0-7h-3v-1h-1v-3h1v-1h3v5Zm6,3v3h-1v1h-2v-1h-1v-3h1v-1h2v1h1Zm-1-4v1h-3V2.5h3v1h1v3h-1Z"/></svg>
